!!!OTL: 246. Abendlied.
!!!ARE: Europa, Mitteleuropa, Deutschland
!!!SCT: B0246
!!!TXL: @@DE
!!!YEM: Copyright 1995, estate of Helmut Schaffrath.
**kern	**text
*ICvox	*
*Ivox	*
*clefG2	*
*M3/4	*
*k[f#]	*
*G:	*
=1	=1
!LO:TX:a:t=Sanft.	!
{2g	Nacht
4g	und
=2	=2
2b/	Still'
4b/	iſts
=3	=3
(4a	um
4g)	.
4a	mich
=4	=4
2g	her,
4r}	.
=5	=5
{2b	kaum
4b	ein
=6	=6
2dd	Lüft-
4dd	-chen
=7	=7
(4cc	regt
4b)	.
4cc	ſich
=8	=8
2b	mehr,
4r}	.
=9	=9
{2a	nur
4a	der
=10	=10
2cc	lie-
4cc	-be
=11	=11
(4a	Mond
4b/)	.
4cc	be-
=12	=12
2.dd}	-ſcheint
=13	=13
{(4cc	noch
4b)	.
4a	ſo
=14	=14
2g	trau-
4g	-lich
=15	=15
(4f#	ſei-
4e)	.
4f#	-nen
=16	=16
2g	Freund.
4r}	.
==	==
!!!AGN: Tageszeiten - Lied, Abend
!!!GTL: Tageszeitenlieder
!!!ONB: ESAC (Essen Associative Code) Database: BOEHME
!!!AMT: simple triple
!!!AIN: vox
!!!EED: Helmut Schaffrath
!!!EEV: 1.0
!!Nach einer Mel. von Witthauer.
!!Text: H. Ch. L. Senf
!!!URL-scan: https://archive.org/details/BoehmeVtLieder1895/page/n215/mode/2up
!!!ENC: Anna Maria Matuszewska
!!!EEV: 2024/03/07
*-	*-
